X:1
T:The Lonely Willow Tree
M:3/4
L:1/4
K:C
 G| E2 E| E2 D| C2 C| C2 G| A2 A| F- G A| A- G2-| G2 z| A A A| A A B|\
 c2 G| G C E| G2 A| E2 D| C3-| C2||

